dist/files/product_indent_automation_logo.svg

<svg width="142" height="142" viewBox="0 0 142 142" fill="none" xmlns="http://www.w3.org/2000/svg">
<g filter="url(#filter0_d_5335_2905)">
<circle cx="67" cy="68" r="59" fill="#152968"/>
</g>
<path fill-rule="evenodd" clip-rule="evenodd" d="M66.9991 79.1385C61.05 79.1385 56.2329 74.3249 56.2329 68.3307C56.2329 62.3839 61.05 57.5703 66.9991 57.5703C72.9493 57.5703 77.8138 62.3839 77.8138 68.3307C77.8138 74.3249 72.9493 79.1385 66.9991 79.1385ZM66.9991 59.6941C62.2306 59.6941 58.3579 63.5645 58.3579 68.3307C58.3579 73.0969 62.2306 76.9672 66.9991 76.9672C71.7687 76.9672 75.6414 73.0969 75.6414 68.3307C75.6414 63.5645 71.7687 59.6941 66.9991 59.6941Z" fill="white"/>
<mask id="mask0_5335_2905" style="mask-type:luminance" maskUnits="userSpaceOnUse" x="33" y="34" width="36" height="63">
<path d="M33 34.1211H68.3204V96.6393H33V34.1211Z" fill="white"/>
</mask>
<g mask="url(#mask0_5335_2905)">
<path fill-rule="evenodd" clip-rule="evenodd" d="M48.4421 96.6012C48.2059 96.6012 48.0173 96.5538 47.8286 96.4126C38.5729 90.0411 33 79.5643 33 68.3317C33 49.5957 48.2534 34.3516 66.9998 34.3516C67.6144 34.3516 68.0866 34.8238 68.0866 35.4372C68.0866 36.0506 67.6144 36.5228 66.9998 36.5228C49.4814 36.5228 35.1724 50.8225 35.1724 68.3317C35.1724 78.856 40.3669 88.673 49.0555 94.6186C49.5277 94.9496 49.6701 95.6568 49.339 96.129C49.1029 96.4126 48.7731 96.6012 48.4421 96.6012Z" fill="white"/>
</g>
<mask id="mask1_5335_2905" style="mask-type:luminance" maskUnits="userSpaceOnUse" x="65" y="28" width="13" height="16">
<path d="M65.6533 28H77.2088V43.0069H65.6533V28Z" fill="white"/>
</mask>
<g mask="url(#mask1_5335_2905)">
<path fill-rule="evenodd" clip-rule="evenodd" d="M66.9997 42.8092C66.8585 42.8092 66.6698 42.7617 66.5275 42.7143C66.1502 42.5256 65.9141 42.1483 65.9141 41.7235V29.1703C65.9141 28.7456 66.1502 28.4146 66.5275 28.2259C66.8585 28.0372 67.3307 28.0372 67.6617 28.2734L76.5865 34.5499C76.87 34.7861 77.0112 35.1159 77.0112 35.4469C77.0112 35.8242 76.87 36.1541 76.5865 36.3439L67.6617 42.6205C67.4719 42.7617 67.2358 42.8092 66.9997 42.8092ZM68.0865 31.2467V39.6471L74.083 35.4469L68.0865 31.2467Z" fill="white"/>
</g>
<mask id="mask2_5335_2905" style="mask-type:luminance" maskUnits="userSpaceOnUse" x="65" y="40" width="36" height="63">
<path d="M65.6543 40.0312H101V102.549H65.6543V40.0312Z" fill="white"/>
</mask>
<g mask="url(#mask2_5335_2905)">
<path fill-rule="evenodd" clip-rule="evenodd" d="M67.0002 102.312C66.4342 102.312 65.9146 101.84 65.9146 101.274C65.9146 100.661 66.4342 100.188 67.0002 100.188C84.5672 100.188 98.875 85.8886 98.875 68.332C98.875 57.8552 93.6806 47.9906 84.992 42.0914C84.4723 41.7141 84.3786 41.0532 84.7084 40.581C85.0395 40.0624 85.7003 39.9675 86.22 40.2985C95.4757 46.6226 101 57.1468 101 68.332C101 87.068 85.7478 102.312 67.0002 102.312Z" fill="white"/>
</g>
<mask id="mask3_5335_2905" style="mask-type:luminance" maskUnits="userSpaceOnUse" x="56" y="93" width="13" height="16">
<path d="M56.7646 93.6797H68.3201V108.673H56.7646V93.6797Z" fill="white"/>
</mask>
<g mask="url(#mask3_5335_2905)">
<path fill-rule="evenodd" clip-rule="evenodd" d="M66.9986 108.638C66.81 108.638 66.5739 108.543 66.3852 108.402L57.4605 102.125C57.1769 101.936 56.9883 101.605 56.9883 101.275C56.9883 100.898 57.1769 100.567 57.4605 100.378L66.3852 94.1018C66.7162 93.8657 67.141 93.8182 67.5183 94.0069C67.8493 94.1956 68.0854 94.574 68.0854 94.9513V107.552C68.0854 107.929 67.8493 108.307 67.5183 108.496C67.3771 108.59 67.1885 108.638 66.9986 108.638ZM59.9628 101.275L65.913 105.476V97.0752L59.9628 101.275Z" fill="white"/>
</g>
<path fill-rule="evenodd" clip-rule="evenodd" d="M70.3528 91.3183H63.6942C63.1757 91.3183 62.7035 90.941 62.6086 90.4214L61.4281 83.1066C59.8227 82.4932 58.3586 81.6436 57.0369 80.558L50.0948 83.2003C49.6226 83.3901 49.0554 83.154 48.773 82.7293L45.4675 76.9712C45.1839 76.499 45.2777 75.8856 45.7036 75.5557L51.464 70.8833C51.3228 70.0812 51.2279 69.1842 51.2279 68.3347C51.2279 67.4851 51.3228 66.6356 51.464 65.7861L45.7036 61.1136C45.2777 60.7838 45.1839 60.2167 45.4675 59.7456L48.773 53.9875C49.0554 53.5153 49.6226 53.3266 50.0948 53.5153L57.0369 56.1588C58.3586 55.0732 59.8227 54.2236 61.4281 53.6102L62.6086 46.2943C62.7035 45.7758 63.1757 45.3984 63.6942 45.3984H70.3528C70.8724 45.3984 71.3447 45.7758 71.3921 46.2943L72.5727 53.6102C74.178 54.2236 75.6896 55.0732 77.0113 56.1588L83.906 53.5153C84.4256 53.3266 84.9916 53.5153 85.2277 53.9875L88.5807 59.7456C88.8168 60.2167 88.7219 60.7838 88.2971 61.1136L82.583 65.7861C82.7254 66.6356 82.7729 67.4851 82.7729 68.3347C82.7729 69.1842 82.7254 70.0337 82.583 70.8833L88.2971 75.5557C88.7219 75.8856 88.8168 76.499 88.5807 76.9712L85.2277 82.7293C84.9916 83.154 84.4256 83.3427 83.906 83.154L77.0113 80.558C75.6896 81.6436 74.178 82.4932 72.5727 83.1066L71.3921 90.4214C71.3447 90.941 70.8724 91.3183 70.3528 91.3183ZM64.5924 89.1471H69.4083L70.5414 82.1158C70.6363 81.7374 70.9199 81.4075 71.2972 81.2663C73.0449 80.6992 74.6502 79.7559 76.0669 78.4816C76.3504 78.2455 76.7752 78.1506 77.1525 78.2929L83.8585 80.8415L86.2196 76.6876L80.6942 72.1576C80.4118 71.9215 80.2694 71.4967 80.3643 71.1194C80.5055 70.2224 80.6004 69.2779 80.6004 68.3347C80.6004 67.4377 80.5055 66.4944 80.3643 65.5974C80.2694 65.1726 80.4118 64.7953 80.6942 64.5118L86.2196 60.028L83.8585 55.8752L77.1525 58.4238C76.7752 58.565 76.3504 58.4713 76.0669 58.1877C74.6502 56.9609 73.0449 56.0164 71.2972 55.4505C70.9199 55.3093 70.6363 54.9783 70.5414 54.6009L69.4083 47.5686H64.5924L63.4581 54.6009C63.4118 54.9783 63.1283 55.3093 62.7498 55.4505C60.9558 56.0164 59.3505 56.9609 57.9813 58.1877C57.6503 58.4713 57.2255 58.565 56.8471 58.4238L50.1897 55.8752L47.7811 60.028L53.3054 64.5118C53.6364 64.7953 53.7776 65.1726 53.6839 65.5974C53.4952 66.4944 53.4003 67.4377 53.4003 68.3347C53.4003 69.2779 53.4952 70.2224 53.6839 71.1194C53.7776 71.4967 53.6364 71.9215 53.3054 72.1576L47.7811 76.6876L50.1897 80.8415L56.8471 78.2929C57.2255 78.1506 57.6503 78.2455 57.9813 78.4816C59.3505 79.7559 60.9558 80.6992 62.7498 81.2663C63.1283 81.4075 63.4118 81.7374 63.4581 82.1158L64.5924 89.1471Z" fill="white"/>
<defs>
<filter id="filter0_d_5335_2905" x="0.6" y="0.6" width="140.8" height="140.8" filterUnits="userSpaceOnUse" color-interpolation-filters="sRGB">
<feFlood flood-opacity="0" result="BackgroundImageFix"/>
<feColorMatrix in="SourceAlpha" type="matrix" values="0 0 0 0 0 0 0 0 0 0 0 0 0 0 0 0 0 0 127 0" result="hardAlpha"/>
<feOffset dx="4" dy="3"/>
<feGaussianBlur stdDeviation="5.7"/>
<feComposite in2="hardAlpha" operator="out"/>
<feColorMatrix type="matrix" values="0 0 0 0 0.128333 0 0 0 0 0.119778 0 0 0 0 0.119778 0 0 0 0.25 0"/>
<feBlend mode="normal" in2="BackgroundImageFix" result="effect1_dropShadow_5335_2905"/>
<feBlend mode="normal" in="SourceGraphic" in2="effect1_dropShadow_5335_2905" result="shape"/>
</filter>
</defs>
</svg>

<svg xmlns="http://www.w3.org/2000/svg" width="142" height="142" fill="none"><g filter="url(#a)"><circle cx="67" cy="68" r="59" fill="#152968"/></g><path fill="#fff" fill-rule="evenodd" d="M67 79.138c-5.95 0-10.767-4.813-10.767-10.807 0-5.947 4.817-10.76 10.766-10.76 5.95 0 10.815 4.813 10.815 10.76 0 5.994-4.865 10.807-10.815 10.807Zm0-19.444c-4.77 0-8.642 3.87-8.642 8.637 0 4.766 3.873 8.636 8.641 8.636 4.77 0 8.642-3.87 8.642-8.636 0-4.767-3.872-8.637-8.642-8.637Z" clip-rule="evenodd"/><mask id="b" width="36" height="63" x="33" y="34" maskUnits="userSpaceOnUse" style="mask-type:luminance"><path fill="#fff" d="M33 34.121h35.32V96.64H33V34.121Z"/></mask><g mask="url(#b)"><path fill="#fff" fill-rule="evenodd" d="M48.442 96.601a.95.95 0 0 1-.613-.188C38.573 90.04 33 79.564 33 68.332c0-18.736 15.253-33.98 34-33.98.614 0 1.087.472 1.087 1.085 0 .614-.473 1.086-1.087 1.086-17.519 0-31.828 14.3-31.828 31.809a31.836 31.836 0 0 0 13.884 26.287c.472.33.614 1.038.283 1.51-.236.284-.566.472-.897.472Z" clip-rule="evenodd"/></g><mask id="c" width="13" height="16" x="65" y="28" maskUnits="userSpaceOnUse" style="mask-type:luminance"><path fill="#fff" d="M65.653 28H77.21v15.007H65.653V28Z"/></mask><g mask="url(#c)"><path fill="#fff" fill-rule="evenodd" d="M67 42.81a1.68 1.68 0 0 1-.472-.096 1.1 1.1 0 0 1-.614-.99V29.17c0-.424.236-.755.614-.944.33-.189.803-.189 1.134.047l8.924 6.277c.284.236.425.566.425.897 0 .377-.141.707-.424.897l-8.925 6.276c-.19.142-.426.19-.662.19Zm1.087-11.563v8.4l5.996-4.2-5.996-4.2Z" clip-rule="evenodd"/></g><mask id="d" width="36" height="63" x="65" y="40" maskUnits="userSpaceOnUse" style="mask-type:luminance"><path fill="#fff" d="M65.654 40.031H101v62.518H65.654V40.031Z"/></mask><g mask="url(#d)"><path fill="#fff" fill-rule="evenodd" d="M67 102.312c-.566 0-1.085-.472-1.085-1.038 0-.613.52-1.086 1.085-1.086 17.567 0 31.875-14.3 31.875-31.856 0-10.477-5.194-20.341-13.883-26.24-.52-.378-.613-1.039-.284-1.511.332-.519.992-.614 1.512-.283C95.476 46.623 101 57.147 101 68.332c0 18.736-15.252 33.98-34 33.98Z" clip-rule="evenodd"/></g><mask id="e" width="13" height="16" x="56" y="93" maskUnits="userSpaceOnUse" style="mask-type:luminance"><path fill="#fff" d="M56.765 93.68H68.32v14.993H56.765V93.68Z"/></mask><g mask="url(#e)"><path fill="#fff" fill-rule="evenodd" d="M66.999 108.638c-.189 0-.425-.095-.614-.236l-8.925-6.277a1.055 1.055 0 0 1-.472-.85c0-.377.189-.708.473-.897l8.924-6.276a1.089 1.089 0 0 1 1.133-.095c.331.189.567.567.567.944v12.601c0 .377-.236.755-.567.944a.953.953 0 0 1-.52.142Zm-7.036-7.363 5.95 4.201v-8.4l-5.95 4.199Z" clip-rule="evenodd"/></g><path fill="#fff" fill-rule="evenodd" d="M70.353 91.318h-6.659c-.518 0-.99-.377-1.085-.897l-1.18-7.314a15.703 15.703 0 0 1-4.392-2.549L50.095 83.2c-.472.19-1.04-.046-1.322-.47l-3.306-5.759c-.283-.472-.19-1.085.237-1.415l5.76-4.673c-.141-.802-.236-1.699-.236-2.548 0-.85.095-1.7.236-2.549l-5.76-4.672c-.426-.33-.52-.897-.236-1.368l3.305-5.759c.282-.472.85-.66 1.322-.472l6.942 2.644a15.703 15.703 0 0 1 4.391-2.549l1.18-7.316a1.112 1.112 0 0 1 1.086-.896h6.659c.52 0 .992.378 1.04.896l1.18 7.316c1.605.614 3.117 1.463 4.438 2.549l6.895-2.644c.52-.188 1.086 0 1.322.472l3.353 5.759c.236.47.14 1.038-.284 1.368l-5.714 4.672c.142.85.19 1.7.19 2.549 0 .85-.048 1.699-.19 2.548l5.714 4.673c.425.33.52.943.284 1.415l-3.353 5.758c-.236.425-.802.614-1.322.425l-6.895-2.596c-1.321 1.086-2.833 1.935-4.438 2.549l-1.18 7.314c-.048.52-.52.897-1.04.897Zm-5.76-2.17h4.815l1.133-7.032c.095-.379.379-.709.756-.85 1.748-.567 3.353-1.51 4.77-2.784a1.113 1.113 0 0 1 1.086-.19l6.706 2.55 2.36-4.154-5.525-4.53a1.058 1.058 0 0 1-.33-1.039 18.03 18.03 0 0 0 .236-2.784c0-.897-.094-1.84-.236-2.738-.095-.424.048-.802.33-1.085l5.526-4.484-2.361-4.153-6.706 2.549a1.027 1.027 0 0 1-1.086-.236c-1.417-1.227-3.022-2.172-4.77-2.738a1.24 1.24 0 0 1-.756-.85l-1.133-7.031h-4.816L63.458 54.6c-.046.377-.33.708-.708.85a12.99 12.99 0 0 0-4.769 2.737c-.33.283-.756.377-1.134.236l-6.657-2.549-2.409 4.153 5.524 4.484c.331.283.473.66.379 1.085a13.609 13.609 0 0 0 0 5.522.994.994 0 0 1-.379 1.039l-5.524 4.53 2.409 4.153 6.657-2.548c.378-.142.803-.047 1.134.189a12.476 12.476 0 0 0 4.769 2.784c.378.141.662.471.708.85l1.134 7.031Z" clip-rule="evenodd"/><defs><filter id="a" width="140.8" height="140.8" x=".6" y=".6" color-interpolation-filters="sRGB" filterUnits="userSpaceOnUse"><feFlood flood-opacity="0" result="BackgroundImageFix"/><feColorMatrix in="SourceAlpha" result="hardAlpha" values="0 0 0 0 0 0 0 0 0 0 0 0 0 0 0 0 0 0 127 0"/><feOffset dx="4" dy="3"/><feGaussianBlur stdDeviation="5.7"/><feComposite in2="hardAlpha" operator="out"/><feColorMatrix values="0 0 0 0 0.128333 0 0 0 0 0.119778 0 0 0 0 0.119778 0 0 0 0.25 0"/><feBlend in2="BackgroundImageFix" result="effect1_dropShadow_5335_2905"/><feBlend in="SourceGraphic" in2="effect1_dropShadow_5335_2905" result="shape"/></filter></defs></svg>
